src/images/Review/ArrowPrev.svg

<svg width="27" height="16" viewBox="0 0 27 16" fill="none" xmlns="http://www.w3.org/2000/svg">
<path d="M26 7C26.5523 7 27 7.44772 27 8C27 8.55228 26.5523 9 26 9V7ZM0.292892 8.70711C-0.0976315 8.31658 -0.0976315 7.68342 0.292892 7.29289L6.65685 0.928932C7.04738 0.538408 7.68054 0.538408 8.07107 0.928932C8.46159 1.31946 8.46159 1.95262 8.07107 2.34315L2.41421 8L8.07107 13.6569C8.46159 14.0474 8.46159 14.6805 8.07107 15.0711C7.68054 15.4616 7.04738 15.4616 6.65685 15.0711L0.292892 8.70711ZM26 9H1V7H26V9Z" fill="#FF6B09"/>
</svg>

<svg width="27" height="16" fill="none" xmlns="http://www.w3.org/2000/svg"><path d="M26 7c.5523 0 1 .44772 1 1s-.4477 1-1 1V7ZM.2929 8.70711c-.39053-.39053-.39053-1.02369 0-1.41422L6.65684.92893c.39053-.39052 1.02369-.39052 1.41422 0 .39052.39053.39052 1.02369 0 1.41422L2.41421 8l5.65686 5.6569c.39052.3905.39052 1.0236 0 1.4142-.39053.3905-1.02369.3905-1.41422 0L.29289 8.70711ZM26 9H1V7h25v2Z" fill="#FF6B09"/></svg>
